X:287
T: IN SANITATATEM OMNIUM
N: F0506
O: Europa, Mitteleuropa, Deutschland
R: Studenten -, Trink - Lied, Trinkspruch
M: 3/4
L: 1/16
K: G
D2 | G3GG6B2 | B3AA6d2 | B4z6
D2 | G3GG6B2 | B3AA6d2 | B4z6
B2 | d3dd6e2 | d3cc6
c2 | B3dd4c2B2 | B3AA6
d2 | B3BA3AG2

@@@ Tune index: 5718
